!!!OTL: J&auml;gerlust (236), S. 508
!!!id: T0423
**kern
*clefG2
*k[f#c#]
*A:
{8a
=1
8a
8a
8a
4e
4e
=2
8f#
8f#
8f#
8f#
4f#}
=3
{8a
8a
8a
8a
8cc#
8b
=4
2a}
4r
=5
{4a
4cc#
4ee
=6
4.dd
8cc#
4b
=7
4e
4b
4dd
=8
4.cc#
8b
4a}
=9
{4a
4e
4e
=10
8f#
8f#
8f#
8f#
4f#}
=11
{8a
8a
8a
8a
8cc#
8b
=12
2a}
4r
==
*-
!!!minrhy: 8
!!!meters: 3/4 ]  ZZ[5
!!!cut: J&auml;gerlust (236), S. 508
!!!reg: Luxemburg
!!!trd: Singendes Volk, Esch-Alzette, 1937 posth.
!!!rhy1:   XXX_X_  XXXXX_
!!!rhy2: XXXXXX  X__0_
!!!key: T0423  08  A 3/4 ]  ZZ[5
!!!mod: SECHSTONSKALA DUR ?]  AMBITUS[8
!!!kad: -611-61
!!!akz: 1-6_11_14-53_1-6_11_
!!!fot: 'a__b__c__av_b__
!!!for: 'a__b__c__d__b__
!!!fok: '\__^__M__\__^__
!! PHRAS[VOLLTAKTIG]
!!!fkt: J&auml;gerlied
!!!bem: Esch-Alzette, hhh Dominik M&uuml;ller, 1.6.1915
!! THILL; Mathias
!! PR[14] 2K[10] 2G[16] 3K[4] 3G[0] 4A[6] 4Ü[0] 5A[0] 6K[0] 6G[0]
!! 7K[0] 7G[0] 8A[2] MEHR[0] SI[38] ABS[50] SR[26] SP[12]
!! ST[23] 2k[8] 2g[18] 3k[16] 3g[4] 4d[2] 4ü[0] 5d[0] 6k[0] 6g[0]
!! 7k[0] 7g[0] 8d[0] mehr[0] si[48] dm[-10] sr[26] sp[22]
!! 1F[4] 2F[35] 3F[50] 4F[0] LF[0] 2P[0] 3P[11] 4P[0] TRI[0] DF[4] AB[54]
!! TF[0] U3K[0] U3[0] U4[0] U4Ü[0] U5[4] U6K[0] U6[0] U7K[0] U7[2]
!! N1[10] N2K[0] N2[10] N3K[0] N3[14] N4[12] N4Ü[2] N5[16] N6K[0] N6[14]
!!!n7k: 0] N7[8] O1[10] O2K[0] O2[0] O3K[0] O3[0] HÖ[0
!!!RNB: symbol: &auml;      = a umlaut  (UTF-8: Å„)
!!!RNB: symbol: &uuml;  = u umlaut (UTF-8: Ã¼)
